X: 2
T: Roseville
Z: bonnanza
S: https://thesession.org/tunes/5050#setting17388
R: reel
M: 4/4
L: 1/8
K: Gmaj
dedc BAGF E2G2|A3B AGFE DEG2|dedc BAGF E2G2|A3B AGFE DEG2|]|:G2ba gfed B2d2|e3f edBA B2d2|dedc BAGF E2G2|A3B AGFE DEG2:|E2c2 cdcB AGFG|E2G2 E2G2 GAGF|EDEF G2D2 A2D2|BAG2 d2B2 B2A2-|\E2c2 cdcB AGFG|E2G2 CDEF GAGF|EDEF G2D2 A2D2|BAG2 d2B2 A2G2-|\
